symbols/web/maps_ugc/materialsymbolsrounded/maps_ugc_grad200_40px.svg

<svg xmlns="http://www.w3.org/2000/svg" height="40" width="40"><path d="M20.125 19.875ZM1.583 36.333l2.5-8.916q-.875-1.792-1.229-3.729Q2.5 21.75 2.5 19.792q0-3.625 1.396-6.854 1.396-3.23 3.791-5.605 2.396-2.375 5.625-3.77 3.23-1.396 6.896-1.396 3.625 0 6.854 1.396 3.23 1.395 5.605 3.77 2.375 2.375 3.771 5.605 1.395 3.229 1.395 6.854 0 3.666-1.395 6.896-1.396 3.229-3.771 5.624-2.375 2.396-5.605 3.792-3.229 1.396-6.854 1.396-1.958 0-3.896-.354-1.937-.354-3.729-1.229l-8.916 2.5Q2.708 38.708 2 38q-.708-.708-.417-1.667Zm18.584-9.375q.75 0 1.25-.52.5-.521.5-1.271v-3.459h3.541q.709 0 1.23-.52.52-.521.52-1.271 0-.709-.52-1.209-.521-.5-1.23-.5h-3.541v-3.541q0-.75-.521-1.25t-1.229-.5q-.709 0-1.229.5-.521.5-.521 1.25v3.541h-3.5q-.75 0-1.271.5-.521.5-.521 1.25 0 .709.521 1.23.521.52 1.271.52h3.5v3.459q0 .75.521 1.271.52.52 1.229.52ZM5.875 34.125l5.75-1.667q.208-.083.396-.104.187-.021.479-.021.375 0 .771.063.396.062.771.229 1.5.625 3.041 1 1.542.375 3.125.375 5.875 0 10-4.146t4.125-10.062q0-5.875-4.125-10T20.167 5.667q-5.875 0-10.021 4.125Q6 13.917 6 19.833q0 1.584.271 3.146.271 1.563 1.104 2.979.292.584.313 1.209.02.625-.146 1.208Z"/></svg>

<svg xmlns="http://www.w3.org/2000/svg" height="40" width="40"><path d="M20.125 19.875Q20.125 19.875 20.125 19.875Q20.125 19.875 20.125 19.875Q20.125 19.875 20.125 19.875Q20.125 19.875 20.125 19.875Q20.125 19.875 20.125 19.875Q20.125 19.875 20.125 19.875Q20.125 19.875 20.125 19.875Q20.125 19.875 20.125 19.875Q20.125 19.875 20.125 19.875Q20.125 19.875 20.125 19.875Q20.125 19.875 20.125 19.875Q20.125 19.875 20.125 19.875Q20.125 19.875 20.125 19.875Q20.125 19.875 20.125 19.875Q20.125 19.875 20.125 19.875Q20.125 19.875 20.125 19.875ZM1.583 36.333 4.083 27.417Q3.208 25.625 2.854 23.688Q2.5 21.75 2.5 19.792Q2.5 16.167 3.896 12.938Q5.292 9.708 7.687 7.333Q10.083 4.958 13.312 3.563Q16.542 2.167 20.208 2.167Q23.833 2.167 27.062 3.563Q30.292 4.958 32.667 7.333Q35.042 9.708 36.438 12.938Q37.833 16.167 37.833 19.792Q37.833 23.458 36.438 26.688Q35.042 29.917 32.667 32.312Q30.292 34.708 27.062 36.104Q23.833 37.5 20.208 37.5Q18.25 37.5 16.312 37.146Q14.375 36.792 12.583 35.917L3.667 38.417Q2.708 38.708 2 38Q1.292 37.292 1.583 36.333ZM20.167 26.958Q20.917 26.958 21.417 26.438Q21.917 25.917 21.917 25.167V21.708H25.458Q26.167 21.708 26.688 21.188Q27.208 20.667 27.208 19.917Q27.208 19.208 26.688 18.708Q26.167 18.208 25.458 18.208H21.917V14.667Q21.917 13.917 21.396 13.417Q20.875 12.917 20.167 12.917Q19.458 12.917 18.938 13.417Q18.417 13.917 18.417 14.667V18.208H14.917Q14.167 18.208 13.646 18.708Q13.125 19.208 13.125 19.958Q13.125 20.667 13.646 21.188Q14.167 21.708 14.917 21.708H18.417V25.167Q18.417 25.917 18.938 26.438Q19.458 26.958 20.167 26.958ZM5.875 34.125 11.625 32.458Q11.833 32.375 12.021 32.354Q12.208 32.333 12.5 32.333Q12.875 32.333 13.271 32.396Q13.667 32.458 14.042 32.625Q15.542 33.25 17.083 33.625Q18.625 34 20.208 34Q26.083 34 30.208 29.854Q34.333 25.708 34.333 19.792Q34.333 13.917 30.208 9.792Q26.083 5.667 20.167 5.667Q14.292 5.667 10.146 9.792Q6 13.917 6 19.833Q6 21.417 6.271 22.979Q6.542 24.542 7.375 25.958Q7.667 26.542 7.688 27.167Q7.708 27.792 7.542 28.375Z"/></svg>
